images/instagram.svg

<svg xmlns="http://www.w3.org/2000/svg" viewBox="0 0 232.87 232.63"><defs><style>.cls-1{fill:#fff;}</style></defs><title>instagram</title><path class="cls-1" d="M116.32 0a116.32 116.32 0 1 0 116.31 116.32c-.11-64.21-52.11-116.32-116.31-116.32zm78.17 162.38a28.35 28.35 0 0 1-28.38 28.38h-99.11a28.35 28.35 0 0 1-28.38-28.38v-93.29a28.35 28.35 0 0 1 28.38-28.38h99a28.35 28.35 0 0 1 28.38 28.38v93.29h.12zm-19.78-83.17h-17.33a5 5 0 0 1-5-5v-16.28a5 5 0 0 1 5-5h17.33a5 5 0 0 1 5 5v16.28a5.12 5.12 0 0 1-5 5zm-136.09 12.33h58.62v7.56h-58.62v-7.56zm115.39 0h40.48v7.56h-40.49v-7.56zm-28.15 65.37a41.41 41.41 0 1 1 41.41-41.41 41.5 41.5 0 0 1-41.41 41.41zm0-72.47a30.94 30.94 0 1 0 30.94 30.94 30.93 30.93 0 0 0-30.94-30.93z"/></svg>

<svg id="Layer_1" data-name="Layer 1" xmlns="http://www.w3.org/2000/svg" viewBox="0 0 232.87 232.63"><defs><style>.cls-1{fill:#fff;}</style></defs><title>instagram</title><path class="cls-1" d="M116.32,0A116.32,116.32,0,1,0,232.63,116.32C232.52,52.11,180.52,0,116.32,0Zm78.17,162.38a28.35,28.35,0,0,1-28.38,28.38H67a28.35,28.35,0,0,1-28.38-28.38V69.09A28.35,28.35,0,0,1,67,40.71h99a28.35,28.35,0,0,1,28.38,28.38v93.29h0.12ZM174.71,79.21H157.38a5,5,0,0,1-5-5V57.93a5,5,0,0,1,5-5h17.33a5,5,0,0,1,5,5V74.21A5.12,5.12,0,0,1,174.71,79.21ZM38.62,91.54H97.24V99.1H38.62V91.54Zm115.39,0h40.48V99.1H154V91.54Zm-28.15,65.37a41.41,41.41,0,1,1,41.41-41.41A41.5,41.5,0,0,1,125.86,156.91Zm0-72.47a30.94,30.94,0,1,0,30.94,30.94A30.93,30.93,0,0,0,125.86,84.45Z"/></svg>
